app/images/social/phone2.svg

<svg width="48" height="48" viewBox="0 0 48 48" fill="none" xmlns="http://www.w3.org/2000/svg">
<path d="M33.4453 28.1203C32.9343 27.8578 30.389 26.6109 29.9156 26.4422C29.4421 26.2641 29.0953 26.1797 28.7531 26.7047C28.4062 27.225 27.4218 28.3828 27.1125 28.7344C26.8125 29.0813 26.5078 29.1234 25.9968 28.8656C22.9593 27.3469 20.9671 26.1563 18.9656 22.7203C18.4359 21.8063 19.4953 21.8719 20.4843 19.8984C20.6531 19.5516 20.5687 19.2563 20.4375 18.9938C20.3062 18.7313 19.275 16.1906 18.8437 15.1547C18.4265 14.1469 17.9953 14.2875 17.6812 14.2687C17.3812 14.25 17.039 14.25 16.6921 14.25C16.3453 14.25 15.7875 14.3813 15.314 14.8922C14.8406 15.4125 13.5046 16.6641 13.5046 19.2047C13.5046 21.7453 15.3562 24.2063 15.6093 24.5531C15.8718 24.9 19.2515 30.1125 24.4406 32.3578C27.7218 33.7734 29.0062 33.8953 30.6468 33.6516C31.6453 33.5016 33.7031 32.4047 34.1296 31.1906C34.5562 29.9813 34.5562 28.9453 34.4296 28.7297C34.3031 28.5 33.9562 28.3688 33.4453 28.1203Z" fill="#030303"/>
<path d="M43.3688 15.8625C42.3094 13.3453 40.7907 11.0859 38.8547 9.14531C36.9188 7.20938 34.6594 5.68594 32.1375 4.63125C29.5594 3.54844 26.8219 3 24 3H23.9063C21.0656 3.01406 18.3141 3.57656 15.7266 4.68281C13.2281 5.75156 10.9875 7.27031 9.07033 9.20625C7.15315 11.1422 5.64846 13.3922 4.60783 15.9C3.52971 18.4969 2.98596 21.2578 3.00002 24.0984C3.01408 27.3516 3.79221 30.5813 5.25002 33.4688V40.5938C5.25002 41.7844 6.21565 42.75 7.40627 42.75H14.536C17.4235 44.2078 20.6531 44.9859 23.9063 45H24.0047C26.8125 45 29.536 44.4563 32.1 43.3922C34.6078 42.3469 36.8625 40.8469 38.7938 38.9297C40.7297 37.0125 42.2531 34.7719 43.3172 32.2734C44.4235 29.6859 44.986 26.9344 45 24.0938C45.0141 21.2391 44.461 18.4687 43.3688 15.8625V15.8625ZM36.286 36.3938C33 39.6469 28.6406 41.4375 24 41.4375H23.9203C21.0938 41.4234 18.286 40.7203 15.8063 39.3984L15.4125 39.1875H8.81252V32.5875L8.60158 32.1937C7.27971 29.7141 6.57658 26.9063 6.56252 24.0797C6.54377 19.4063 8.32971 15.0187 11.6063 11.7141C14.8781 8.40937 19.2516 6.58125 23.925 6.5625H24.0047C26.3485 6.5625 28.6219 7.01719 30.7641 7.91719C32.8547 8.79375 34.7297 10.0547 36.3422 11.6672C37.95 13.275 39.2156 15.1547 40.0922 17.2453C41.0016 19.4109 41.4563 21.7078 41.4469 24.0797C41.4188 28.7484 39.586 33.1219 36.286 36.3938V36.3938Z" fill="#030303"/>
</svg>

<svg width="48" height="48" fill="none" xmlns="http://www.w3.org/2000/svg"><path d="M33.445 28.12c-.51-.262-3.056-1.51-3.53-1.678-.473-.178-.82-.262-1.162.263-.347.52-1.331 1.678-1.64 2.03-.3.346-.605.388-1.116.13-3.038-1.518-5.03-2.709-7.031-6.145-.53-.914.53-.848 1.518-2.822.17-.346.085-.642-.047-.904-.13-.263-1.162-2.803-1.593-3.84-.418-1.007-.849-.867-1.163-.885-.3-.019-.642-.019-.989-.019s-.905.131-1.378.642c-.473.52-1.81 1.772-1.81 4.313 0 2.54 1.852 5.001 2.105 5.348.263.347 3.643 5.56 8.832 7.805 3.28 1.415 4.565 1.537 6.206 1.294.998-.15 3.056-1.247 3.483-2.461.426-1.21.426-2.246.3-2.461-.127-.23-.474-.361-.985-.61z" fill="#030303"/><path d="M43.369 15.863a21.006 21.006 0 00-4.514-6.718 20.829 20.829 0 00-6.717-4.514A20.9 20.9 0 0024 3h-.094A20.95 20.95 0 009.07 9.206 20.81 20.81 0 004.608 15.9 21.008 21.008 0 003 24.098a21.066 21.066 0 002.25 9.37v7.126c0 1.19.966 2.156 2.156 2.156h7.13a21.066 21.066 0 009.37 2.25h.099c2.808 0 5.531-.544 8.095-1.608a20.836 20.836 0 006.694-4.462 20.801 20.801 0 004.523-6.657A20.949 20.949 0 0045 24.093a20.92 20.92 0 00-1.631-8.23zm-7.083 20.53C33 39.648 28.641 41.438 24 41.438h-.08a17.5 17.5 0 01-8.114-2.039l-.393-.21h-6.6v-6.6l-.211-.394a17.499 17.499 0 01-2.04-8.114c-.018-4.674 1.768-9.061 5.044-12.366 3.272-3.305 7.646-5.133 12.319-5.152h.08c2.344 0 4.617.455 6.76 1.355a17.326 17.326 0 015.577 3.75 17.352 17.352 0 013.75 5.578 17.365 17.365 0 011.355 6.835c-.028 4.668-1.861 9.042-5.161 12.314z" fill="#030303"/></svg>
